packages/web-icons/svgs/logo_paper_lite.svg

<svg viewBox="0 0 254 49" xmlns="http://www.w3.org/2000/svg" class="ridi_icon"><path d="M18.6.9H.8v48h4.1V4.6h13.3c6.3 0 10.5 4.2 10.5 10.3 0 6-4.1 10.3-10.5 10.3H8.8l.2 3.7h9.7c9 0 14.3-6.5 14.3-14S27.7.9 18.6.9zm30.2 0l-19.4 48h4.7l4.7-11.8h21.5l-1.5-3.7H40.1L51.3 5.3l17.2 43.6h4.7L53.8.9h-5zm45.9 0H77v48h4.1V4.6h13.2c6.3 0 10.5 4.2 10.5 10.3 0 6-4.1 10.3-10.5 10.3H85v3.7h9.7c9 0 14.3-6.5 14.3-14S103.8.9 94.7.9zm19.7 48h30.1v-3.7h-26v-19H144v-3.7h-25.6V4.6h26V.9h-30v48zm69-34c0-8.8-6.3-14-14.4-14h-17.7v48h4.1V4.6h13.3c6.3 0 10.5 4.2 10.5 10.3 0 6.1-4.2 10.4-10.5 10.4h-10.3l.1 3.7h7.2L179 48.9h5l-13.8-20.1c7.1-.3 13.2-5.2 13.2-13.9zm25.2 1.4H207l-4.1 18.6h10.7l.3-1.5h-9l3.7-17.1zm8.2 18.6h1.5l3-13.5h-1.5l-3 13.5zm4.6-17.8c-.6 0-1.3.5-1.3 1.2 0 .5.5 1 1 1 .6 0 1.3-.5 1.3-1.2 0-.6-.5-1-1-1zm7 .6h-1.5l-.8 3.7h-2.2l-.3 1.3h2.2l-2.1 9.6c-.1.3-.1.6-.1.7 0 1.5 1 2.2 2.7 2.2.8 0 1.4-.3 1.9-.6l-.3-1.2c-.3.3-.9.5-1.4.5-.9 0-1.4-.5-1.4-1.3 0-.3 0-.4.1-.6l2.1-9.4h2.8l.3-1.3h-2.8l.8-3.6zm10.2 3.4c-4.2 0-7.5 3.7-7.5 8.2 0 3.5 2.4 5.9 6.5 5.9 1.8 0 3.5-.7 4.7-1.6l-.6-1.1c-1.2 1-2.7 1.5-4.1 1.5-3.3 0-5-2.1-5-4.6 0-.2 0-.6.1-.8h11.5c.1-.3.2-1.1.2-1.7 0-3.3-2.2-5.8-5.8-5.8zm4.3 6.4h-10.1c.5-2.8 2.9-5.1 5.6-5.1 2.9 0 4.5 1.9 4.5 4.5.1.1.1.4 0 .6zm4.8-19.8h-48.1c-3.1 0-5.7 2.5-5.7 5.6v24.1c0 3.1 2.6 5.6 5.7 5.6h48.1c3.1 0 5.7-2.5 5.7-5.6v-24c0-3.1-2.6-5.7-5.7-5.7zm4.7 29.8c0 2.6-2.1 4.7-4.8 4.7h-48.1c-2.6 0-4.8-2.1-4.8-4.7V13.4c0-2.6 2.1-4.7 4.8-4.7h48.1c2.6 0 4.8 2.1 4.8 4.7v24.1z"/></svg>

<?xml version="1.0" encoding="UTF-8"?>
<svg width="254px" height="49px" viewBox="0 0 254 49" version="1.1" xmlns="http://www.w3.org/2000/svg">
  <!-- Generator: Sketch 41.2 (35397) - http://www.bohemiancoding.com/sketch -->
  <title>logo_paper_lite</title>
  <desc>Created with Sketch.</desc>
  <defs></defs>
  <g id="Page-1" stroke="none" stroke-width="1" fill="none" fill-rule="evenodd">
    <g id="logo_paper_lite" fill="#000000">
      <g id="Layer_2">
        <path d="M18.6,0.9 L0.8,0.9 L0.8,48.9 L4.9,48.9 L4.9,4.6 L18.2,4.6 C24.5,4.6 28.7,8.8 28.7,14.9 C28.7,20.9 24.6,25.2 18.2,25.2 L8.8,25.2 L9,28.9 L18.7,28.9 C27.7,28.9 33,22.4 33,14.9 C33,7.4 27.7,0.9 18.6,0.9 Z M48.8,0.9 L29.4,48.9 L34.1,48.9 L38.8,37.1 L60.3,37.1 L58.8,33.4 L40.1,33.4 L51.3,5.3 L68.5,48.9 L73.2,48.9 L53.8,0.9 L48.8,0.9 L48.8,0.9 Z M94.7,0.9 L77,0.9 L77,48.9 L81.1,48.9 L81.1,4.6 L94.3,4.6 C100.6,4.6 104.8,8.8 104.8,14.9 C104.8,20.9 100.7,25.2 94.3,25.2 L85,25.2 L85,28.9 L94.7,28.9 C103.7,28.9 109,22.4 109,14.9 C109,7.4 103.8,0.9 94.7,0.9 Z M114.4,48.9 L144.5,48.9 L144.5,45.2 L118.5,45.2 L118.5,26.2 L144,26.2 L144,22.5 L118.4,22.5 L118.4,4.6 L144.4,4.6 L144.4,0.9 L114.4,0.9 L114.4,48.9 Z M183.4,14.9 C183.4,6.1 177.1,0.9 169,0.9 L151.3,0.9 L151.3,48.9 L155.4,48.9 L155.4,4.6 L168.7,4.6 C175,4.6 179.2,8.8 179.2,14.9 C179.2,21 175,25.3 168.7,25.3 L158.4,25.3 L158.5,29 L165.7,29 L179,48.9 L184,48.9 L170.2,28.8 C177.3,28.5 183.4,23.6 183.4,14.9 Z M208.6,16.3 L207,16.3 L202.9,34.9 L213.6,34.9 L213.9,33.4 L204.9,33.4 L208.6,16.3 Z M216.8,34.9 L218.3,34.9 L221.3,21.4 L219.8,21.4 L216.8,34.9 Z M221.4,17.1 C220.8,17.1 220.1,17.6 220.1,18.3 C220.1,18.8 220.6,19.3 221.1,19.3 C221.7,19.3 222.4,18.8 222.4,18.1 C222.4,17.5 221.9,17.1 221.4,17.1 Z M228.4,17.7 L226.9,17.7 L226.1,21.4 L223.9,21.4 L223.6,22.7 L225.8,22.7 L223.7,32.3 C223.6,32.6 223.6,32.9 223.6,33 C223.6,34.5 224.6,35.2 226.3,35.2 C227.1,35.2 227.7,34.9 228.2,34.6 L227.9,33.4 C227.6,33.7 227,33.9 226.5,33.9 C225.6,33.9 225.1,33.4 225.1,32.6 C225.1,32.3 225.1,32.2 225.2,32 L227.3,22.6 L230.1,22.6 L230.4,21.3 L227.6,21.3 L228.4,17.7 Z M238.6,21.1 C234.4,21.1 231.1,24.8 231.1,29.3 C231.1,32.8 233.5,35.2 237.6,35.2 C239.4,35.2 241.1,34.5 242.3,33.6 L241.7,32.5 C240.5,33.5 239,34 237.6,34 C234.3,34 232.6,31.9 232.6,29.4 C232.6,29.2 232.6,28.8 232.7,28.6 L244.2,28.6 C244.3,28.3 244.4,27.5 244.4,26.9 C244.4,23.6 242.2,21.1 238.6,21.1 Z M242.9,27.5 L232.8,27.5 C233.3,24.7 235.7,22.4 238.4,22.4 C241.3,22.4 242.9,24.3 242.9,26.9 C243,27 243,27.3 242.9,27.5 Z M247.7,7.7 L199.6,7.7 C196.5,7.7 193.9,10.2 193.9,13.3 L193.9,37.4 C193.9,40.5 196.5,43 199.6,43 L247.7,43 C250.8,43 253.4,40.5 253.4,37.4 L253.4,13.4 C253.4,10.3 250.8,7.7 247.7,7.7 Z M252.4,37.5 C252.4,40.1 250.3,42.2 247.6,42.2 L199.5,42.2 C196.9,42.2 194.7,40.1 194.7,37.5 L194.7,13.4 C194.7,10.8 196.8,8.7 199.5,8.7 L247.6,8.7 C250.2,8.7 252.4,10.8 252.4,13.4 L252.4,37.5 L252.4,37.5 Z" id="Shape"></path>
      </g>
    </g>
  </g>
</svg>
